X: 2904
T: Fair Donald
P: Lady Dick Lauder's Strathspey
C:J. Taylor Album
R:Strathspey (8x32)
B:RSCDS 29-4
Z:Anselm Lingnau <anselm@strathspey.org>
M:C
L:1/8
K:Bb
%
F|"Bb"B/c/d BF "Eb"G>B "Bb"F>B|F>B d/c/B/c/ "F"dc "F7"cd|\
  "Gm"B/c/d "Bb"BF "Eb"G>B "Bb"F>B|"Cm"G>B G/F/E/D/ "F7"C2 "Bb"B,F|
  "Bb"B/c/d BF "Eb"G>B "Bb"F>B|F>B d/c/B/c/ "F"dc "F7"cd|\
  "Gm"B/c/d "Bb"BF "Eb"G>B "Bb"F>B|"Cm"G>B G/F/E/D/ "F7"C2 "Bb"B,||
d|"Bb"B>BdB f>Bdf|"Eb"e>g "Bb"d>f "Cm"g/f/e/d/ "F7"c>d|\
  "Bb"B>BdB f>Bdf|"Eb"e>g "Cm"g/f/e/d/ "F7"c2 "Bb"Bd|
  "Bb"B>BdB f>Bdf|"Eb"e>g "Bb"df "Cm"g/f/e/d/ "F7"c>d|\
  "Gm"B/c/d "Bb"BF "Eb"G<B "Cm"e<g|"Bb"f>b "Eb"g/f/e/d/ "F7"c2 "Bb"B|]
%%center Book29/2904-Fair_Donald-AL.abc

%%sep 2 1 500
%%sep 1 1 500

